X:0911
M:C
L:1/8
Q:3/8=120
K:D
 F/G/|A2AB A2F2|A2AB A2F2|dcBA cBAG|G2E2 E2
 f/g/|abab a2gf|gaga gfed|gege fdfd|f2e2 e2
fg   |abab bagf|gaga gfed|Bdce dfeg|f2d2 d3:|

